/* XPM */
static const char *_db439e018dbb500a8cdf460e4cc80f8155bc9f7b5a3d1b26023d6064f19eafc[] = {
/* columns rows colors chars-per-pixel */
"32 32 53 1 ",
"  c #4A8ECE",
". c #458ED2",
"X c #529DD7",
"o c #5C9CD9",
"O c #5CAAE1",
"+ c #77ADE9",
"@ c #6FB5E8",
"# c #73B7E2",
"$ c #71B3E4",
"% c #7EBCF4",
"& c #73C0E9",
"* c #7FC8EA",
"= c #7FCDEE",
"- c #8BB5E0",
"; c #85BDF7",
": c #83C9E8",
"> c #84C8ED",
", c #88C8EC",
"< c #9CC4E5",
"1 c #94C2EF",
"2 c #9DC8EA",
"3 c #98CDEC",
"4 c #93D0ED",
"5 c #9FD5EF",
"6 c #9AC9F6",
"7 c #A6C0E7",
"8 c #A7C0EB",
"9 c #B0C7EC",
"0 c #B0C8EC",
"q c #ABCEF6",
"w c #ADCCFB",
"e c #B9CEF0",
"r c #A0D4F6",
"t c #A9D5F2",
"y c #B4D5F7",
"u c #C1D9FC",
"i c #D2DFF8",
"p c #C7E0FB",
"a c #D6E1F7",
"s c #DEE7F6",
"d c #D8E3FB",
"f c #E0E7F6",
"g c #E4EBF9",
"h c #E7EEFB",
"j c #E0EAFD",
"k c #E3ECFC",
"l c #EFF4FD",
"z c #F1F5FE",
"x c #F5F7FC",
"c c #F5F8FE",
"v c #F8FAFF",
"b c #FBFCFE",
"n c white",
/* pixels */
"nnnnnnnnnnnnnnnnnnnnnnnnnnnnnnnn",
"nnnnnnnnnnnnnnnnnnnnnnnnnnnnnnnn",
"nnnnnnnnnnnnnnnnnnnnnnnnnnnnnnnn",
"nnnnnnnnnnnnnnnnnnnnnnnnnnnnnnnn",
"nnnnnnnnnnnnnnnnnnnnnnnnnnnnnnnn",
"nnnnnnnnnnnnnnnnnnnnnnnnnnnnnnnn",
"nnnnnnnnnnnnnnnnnnnnnnnnnnnnnnnn",
"nnnnnnnnnnnnnnnnnnnnnnnnnnnnnnnn",
"nnnnnnnnnnnnnnnnnnnnnnnnnnnnnnnn",
"nnnnnnnnnnnnnnnnnnnnnnnnnnnnnnnn",
"nnnnnnnnnnnnnnnnnnnnnnnnnnnnnnnn",
"nnnnnnnnnnnnnnnnnnnnnnnnnnnnnnnn",
"nnnnnnnnnnnnnnnnnnnnnnnnnnnnnnnn",
"nnnnnnnnnnnnnnnnnnnnnnnnnnnnnnnn",
"nnnnnnnnnnnnnnnnnnnnnnnnnnnnnnnn",
"nnnnnnnnnnnnnnnnnnnnnnnnnnnnnnnn",
"nnnnnldjvnnnnnnnnnnnnnnnnnnnnnnn",
"nnnniq%;wvnnnnnnnnnnnnnnnnnnnnnn",
"nnna+=O@runnnnnnnnnnnnnnnnnnnnnn",
"nnn8&Xo4tpznnnnnnnnnnnnnnnnnnnnn",
"nnn95<-#$6knnnnnnnnnnnnnnnnnnnnn",
"nnnf2: .,ycnnnnnnnnnnnnnnnnnnnnn",
"nnnx73*>1hnnnnnnnnnnnnnnnnnnnnnn",
"nnnnbs0egnnnnnnnnnnnnnnnnnnnnnnn",
"nnnnnnnnnnnnnnnnnnnnnnnnnnnnnnnn",
"nnnnnnnnnnnnnnnnnnnnnnnnnnnnnnnn",
"nnnnnnnnnnnnnnnnnnnnnnnnnnnnnnnn",
"nnnnnnnnnnnnnnnnnnnnnnnnnnnnnnnn",
"nnnnnnnnnnnnnnnnnnnnnnnnnnnnnnnn",
"nnnnnnnnnnnnnnnnnnnnnnnnnnnnnnnn",
"nnnnnnnnnnnnnnnnnnnnnnnnnnnnnnnn",
"nnnnnnnnnnnnnnnnnnnnnnnnnnnnnnnn"
};
