/* XPM */
static const char *_86b8cc628498620d53a38001d09cf140f8729e752c6b4cd136fa706ddf57147[] = {
/* columns rows colors chars-per-pixel */
"32 32 204 2 ",
"   c #0F64BD",
".  c #1060B7",
"X  c #1265BD",
"o  c #1B6ABE",
"O  c #0D66C1",
"+  c #0D6AC5",
"@  c #056CCD",
"#  c #0B6CCA",
"$  c #1167C0",
"%  c #126AC3",
"&  c #1B6DC2",
"*  c #1C70C5",
"=  c #1775CF",
"-  c #1C75CB",
";  c #016ED1",
":  c #0672D4",
">  c #0C73D2",
",  c #1A7BD5",
"<  c #2371C3",
"1  c #2B76C5",
"2  c #2779CB",
"3  c #377DC6",
"4  c #3E76D7",
"5  c #3673DD",
"6  c #3C76DB",
"7  c #276FEF",
"8  c #296FED",
"9  c #2F71E6",
"0  c #2D71EB",
"q  c #3375EA",
"w  c #3777E9",
"e  c #3A7AED",
"r  c #246EF2",
"t  c #2D73F2",
"y  c #377AF3",
"u  c #4679CF",
"i  c #4B7CCE",
"p  c #4177D4",
"a  c #4479D3",
"s  c #4A7CD2",
"d  c #437ADA",
"f  c #457DE1",
"g  c #2581D7",
"h  c #2081D9",
"j  c #388BD9",
"k  c #1FB4DE",
"l  c #23B6DF",
"z  c #1CBBE5",
"x  c #1DBCE5",
"c  c #23BBE3",
"v  c #2BBCE3",
"b  c #4989CD",
"n  c #538DCC",
"m  c #5D94CF",
"M  c #418FD8",
"N  c #5382D3",
"B  c #5B87D3",
"V  c #5083DB",
"C  c #5A8ADD",
"Z  c #4593DC",
"A  c #5897D6",
"S  c #618CD5",
"D  c #628EDA",
"F  c #6890D4",
"G  c #6998D4",
"H  c #759ADA",
"J  c #789CD9",
"K  c #6AA3DB",
"L  c #71A4D9",
"P  c #4681EC",
"I  c #4D85E8",
"U  c #4E88EE",
"Y  c #578AE4",
"T  c #5A8CE3",
"R  c #5D91EE",
"E  c #4583F3",
"W  c #4A86F1",
"Q  c #5A91F5",
"!  c #6C98E4",
"~  c #6695EA",
"^  c #739BE0",
"/  c #6799F4",
"(  c #709EF1",
")  c #5AA1E1",
"_  c #69A7E1",
"`  c #71ACE3",
"'  c #79A6E8",
"]  c #7EB3E5",
"[  c #74A1F3",
"{  c #7BA6F5",
"}  c #1CC1EA",
"|  c #24C4EC",
" . c #28C4EB",
".. c #3AC3E7",
"X. c #34C5EA",
"o. c #3AC6EA",
"O. c #3ECAED",
"+. c #2ACBF1",
"@. c #3DCFF1",
"#. c #3DD2F4",
"$. c #42C2E5",
"%. c #49C5E7",
"&. c #43C8EA",
"*. c #4DCBEB",
"=. c #56C9E8",
"-. c #5ACDEB",
";. c #4AD5F5",
":. c #55D5F3",
">. c #5CDBF7",
",. c #5DDDF9",
"<. c #63CDEA",
"1. c #6BCFEA",
"2. c #68D2EE",
"3. c #75D2EC",
"4. c #65DAF5",
"5. c #65DBF6",
"6. c #73D9F3",
"7. c #7EDCF3",
"8. c #6AE0FA",
"9. c #76E4FB",
"0. c #7BE4FA",
"q. c #85A7DF",
"w. c #92B6DE",
"e. c #82A5E2",
"r. c #8DADE4",
"t. c #8AADEB",
"y. c #84B2E0",
"u. c #8CB6E2",
"i. c #83B8E9",
"p. c #8CBEEB",
"a. c #9BB8E5",
"s. c #94B3EA",
"d. c #98B6EB",
"f. c #88AEF3",
"g. c #82ACF8",
"h. c #8BB2F8",
"j. c #9FBDF3",
"k. c #99BBF9",
"l. c #A3BCE7",
"z. c #81D7EF",
"x. c #8AD8EE",
"c. c #86DBF1",
"v. c #9EDFF1",
"b. c #A9C8EA",
"n. c #B1C6EC",
"m. c #B4CAEA",
"M. c #BDCEEE",
"N. c #B9D2EC",
"B. c #A4C1F6",
"V. c #A9C4F4",
"C. c #B5CBF4",
"Z. c #B4CDFB",
"A. c #AED1F0",
"S. c #BAD4F3",
"D. c #85E4F9",
"F. c #87E5F9",
"G. c #9BE3F4",
"H. c #95E8FA",
"J. c #A2E3F4",
"K. c #A4EBFB",
"L. c #ACEDFA",
"P. c #B2E7F5",
"I. c #B6E9F6",
"U. c #BBEAF6",
"Y. c #B4EDFA",
"T. c #BBECF8",
"R. c #AEF0FD",
"E. c #B6F0FD",
"W. c #BBF1FD",
"Q. c #C6D6EF",
"!. c #C6D9EF",
"~. c #C2D5F6",
"^. c #C8D7F3",
"/. c #C2DAF1",
"(. c #CBDBF4",
"). c #C4D6FA",
"_. c #CADAFA",
"`. c #D3DFF3",
"'. c #CDE2F6",
"]. c #C6ECF7",
"[. c #C9EDF7",
"{. c #C3EEF8",
"}. c #D4E2F4",
"|. c #DAE5F5",
" X c #D4E2FA",
".X c #DBE6FB",
"XX c #D7EBF8",
"oX c #DDE9FB",
"OX c #C4F1FB",
"+X c #CCF4FC",
"@X c #D4F4FC",
"#X c #DAF5FB",
"$X c #E3EBF7",
"%X c #E3ECFB",
"&X c #E9EFFB",
"*X c #E3F5FB",
"=X c #ECF4FC",
"-X c #E4F9FD",
";X c #EBF9FD",
":X c #F2F6FC",
">X c #F5FAFD",
",X c #FAFDFF",
"<X c #FDFDFF",
"1X c #FFFFFF",
/* pixels */
"1X1X1X1X1X1X1X1X1X1XoXV.[ U e q 0 y W ( B.oX1X1X1X1X1X1X1X1X1X1X",
"1X1X1X1X1X1X1X1X1Xj.I w 9 9 9 0 0 8 7 7 t E g. X1X1X1X1X1X1X1X1X",
"1X1X1X1X1X1X>X1X1X~.P 9 w P R ( { [ / W t r r y h.=X1X1X1X1X1X1X",
"1X1X1X1X1X X' ~.1X1XS.{ C.%X=X-X-X-X=X%X_.f.E r r Q  X1X1X1X1X1X",
"1X1X1X1X(.Y 5 I _.1X1X;XOXD.:.#.#.#.;.8.L.-X%Xh.y t Z.1X1X1X1X1X",
"1X1X1X XY 5 5 f C.1XY.:.| +.:.D.K.L.K.D.,.;.H.;X).k.>X1X>X1X1X1X",
"1X1X=X! 5 5 f C.;X7.| | 6.+X,X>X%XoX%X>X1X+X9.5.+X1X1X%Xg.%X1X1X",
"1X1Xd.6 6 d V.;X2.} O.Y.1X}.] M g , g Z i.XX1XE.,.OX1Xg.r h.1X1X",
"1X}.V 6 6 t.;X6.} O.+X:Xu.2 @ @ @ @ @ ; ; h p.>X+X8.@XZ.t y  X1X",
"1Xr.6 6 C $XJ.|  .T.:XK + # # # # @ # = > ; : ` >XW.9.=X[ r { 1X",
"$XC p 6 d.*X&.x 7.1Xy.+ + + # # = ` S.'.A.) > : p.1XD.R._.Q k.>X",
"n.a p V |.G.z X.#X^.< O + + # - b.1X:X1X1X>Xi.: ,  X-XE.1X:X1X1X",
"e.p p ^ =X-.z 2.1XL O $ O + # ` 1X:X3.@X1X[.XX] p.*X1X1X1X1X1X=X",
"D a p s.#X..z G.=X3   $ $ O * /.1X[.v 1.[.<.v.1X1X1X1X1X,X%X[ / ",
"N a a n.{.v c T.}.< X X $ O * }.1X].v l v l x.1X:X'.:X+XH..Xe y ",
"s a a M.I.c v +X!.o   X * b y.=X1X;X=.k l l P.S.j g }.+X0.%XP 0 ",
"s s a M.I.c c {.}.3 n u.(.:X1X1X1X1X[.=.$.x.*XZ @ , XX+X0.%XP 0 ",
"N s a n.{.v ..{.>X|.>X1X1X1X>X|./.>X1X,X;X:X] # @ j =XY.D..Xe e ",
"D u s l.;XI.*X1X1X1X1X>X}.a.m 1 * K b./.b.A # # @ _ 1XD.K.).q U ",
"l.a.^.:X1X1X1X1X1X:Xw.b < X   X O O % % + # # # = /.;X>.+Xj.9 [ ",
"1X1X1X1X1X,XU.z.P.>XG . X X X X $ $ $ + + + # # ` 1XK.>.=X~ q V.",
"1X1X%XM.Q.*X%.z $.#X$Xn . X X X X $ $ $ + + # A =X-X;.L._.e I oX",
"1XM.S i S $XJ.c c <.;X$XG o . X X X $ O O % K *X;X5.5.,Xj.9 f.1X",
"1X}.B i i r.=X3.c c 2.*X>Xm.m 1 o o & 1 A N.>X-X5.;.@X1X=Xt. X1X",
"1X1Xa.i i i n.;X1.c c %.P.,X>X$X!.N./.$X1X,XY.;.@.OX&X:X1X>X1X1X",
"1X1X=XJ i i N M.;Xz.v z c -.G.OX*X-X-X+XG.:.| :.@X.X~ s.>X1X1X1X",
"1X1X1X|.F i i N b.:XI.-.v z z  .X.o.X. .| O.H.;X^.T 5 T %X1X1X1X",
"1X1X1X1X`.F i i J :X1X>X{.c.-.&.o.O.*.6.L.-X%Xs.d 5 Y (.1X1X1X1X",
"1X1X1X1X1X|.J S `.1X>Xn.M.$X=X=X-X-X=X&X(.s.C 6 6 !  X1X1X1X1X1X",
"1X1X1X1X1X1X=X}.1X1Xm.s s B H e.r.e.^ C d 4 4 V d.=X1X1X1X1X1X1X",
"1X1X1X1X1X1X1X1X1X=XJ i i a a a a p p p a C r.}.1X1X1X1X1X1X1X1X",
"1X1X1X1X1X1X1X1X1X1X$Xm.q.D N s s N D e.n.$X1X1X1X1X1X1X1X1X1X1X"
};
